X: 064
T: In Days Gone By (h'pipe)
N: 090150
C: BB
R: hornpipe
Q: 330
M: C|
L: 1/8
K: Ddor
A|"Dm"d^cde fgag|"Dm"f2 ed "Am"cA (3AGA|"C"c2 BG "Am7"A2 GE|\
"Dm"FGAd "A7"^ceag|
"Dm"fgaf "C"ec (3cBc|"Dm"dcAG FDDE|"F"F2 AF cFdF|"Am7"cAGE "Dm"D3 :|
A|"Dm7"dcAc dcAc|"Am7"a2ge "Dm"fedc|"Dm"defd "Am7"cAGE|\
"Dm7"FD"A"^CE "Dm"D3 A|
"Dm7"dcAc "Am7"agfe|"Dm7"defd "Am7"cAGE|"Dm7"FGAd "A7"^ceag|\
"Dm7"fd"A"e^c"Dm"d3 :|
%%%%%%%%%%%%%%%%%%%%%%%%%%%%%%%%%%%%%%%%%%%
